aifree.svg

<svg width="571" height="562" viewBox="0 0 571 562" fill="none" xmlns="http://www.w3.org/2000/svg">
<path fill-rule="evenodd" clip-rule="evenodd" d="M249.12 32.7C246.28 30.68 244.69 27.3299 244.94 23.8599C245.19 20.3799 247.23 17.29 250.32 15.7C268.6 6.12995 289.21 0.919922 310.55 0.919922C357.19 0.919922 400.3 25.7999 423.62 66.2L428.21 74.1499C428.76 75.1099 429.79 75.7 430.9 75.7H440.07C486.72 75.7 529.82 100.59 553.15 140.98C576.47 181.38 576.47 231.15 553.15 271.55L548.56 279.5C548 280.46 548 281.64 548.56 282.6L553.15 290.54C576.47 330.94 576.47 380.71 553.15 421.11C529.82 461.51 486.72 486.39 440.07 486.39H430.9C429.79 486.39 428.76 486.98 428.21 487.94L423.62 495.89C400.3 536.29 357.19 561.17 310.55 561.17C263.9 561.17 220.8 536.29 197.48 495.89L192.89 487.94C192.33 486.98 191.31 486.39 190.2 486.39H181.02C134.38 486.39 91.2701 461.51 67.9501 421.11C49.7701 389.61 45.76 352.41 55.93 318.4C56.88 315.3 59.3 312.87 62.4 311.91C65.49 310.95 68.87 311.59 71.4 313.62C72.11 314.15 72.8 314.7 73.51 315.24C75.65 316.86 76.5301 319.65 75.6901 322.2C66.3301 351.52 69.53 383.84 85.27 411.11C105.02 445.32 141.52 466.39 181.02 466.39H190.2C198.45 466.39 206.08 470.8 210.21 477.94L214.79 485.89C234.55 520.1 271.05 541.17 310.55 541.17C350.05 541.17 386.55 520.1 406.3 485.89L410.89 477.94C415.02 470.8 422.64 466.39 430.9 466.39H440.07C479.57 466.39 516.08 445.32 535.83 411.11C555.58 376.9 555.58 334.75 535.83 300.54L531.24 292.6C527.11 285.45 527.11 276.64 531.24 269.5L535.83 261.55C555.58 227.34 555.58 185.19 535.83 150.98C516.08 116.77 479.57 95.7 440.07 95.7H430.9C422.64 95.7 415.02 91.2999 410.89 84.1499L406.3 76.2C386.55 41.99 350.05 20.9199 310.55 20.9199C291.74 20.9199 273.6 25.6999 257.64 34.3999C255.44 35.6199 252.74 35.4199 250.75 33.8899C250.22 33.4699 249.67 33.08 249.12 32.7ZM133.88 260.6L5.43005 89.7397C1.36005 84.3197 -0.389946 77.5098 0.560054 70.7998C1.51005 64.0898 5.09 58.03 10.5 53.96H10.51C15.92 49.89 22.7401 48.1298 29.4501 49.0798C36.1601 50.0298 42.21 53.6098 46.29 59.0298L98.4 128.36C98.94 129.07 99.9001 129.3 100.7 128.91C101.5 128.52 101.9 127.61 101.67 126.76L77 36.9199C75.18 30.2999 76.0701 23.2398 79.4601 17.2698C82.8601 11.3098 88.4901 6.92987 95.1001 5.11987C101.72 3.29987 108.79 4.18983 114.76 7.57983C120.72 10.9698 125.09 16.6 126.91 23.22L147.11 96.7798C147.31 97.4998 147.16 98.2699 146.7 98.8599C146.25 99.4499 145.55 99.7898 144.8 99.7898C133.41 99.8298 123.01 107.46 119.92 118.99L103.76 179.3C102.86 182.68 104.69 186.19 107.98 187.38C109.85 188.05 111.91 187.91 113.67 186.99C115.43 186.07 116.73 184.46 117.24 182.54L133.31 122.57C135.03 116.14 141.65 112.32 148.08 114.05L148.13 114.06C149.54 114.44 150.91 114.9 152.23 115.45C158.21 117.9 163.38 121.99 167.15 127.25C167.24 127.38 167.33 127.5 167.42 127.63C167.96 128.42 168.48 129.23 168.96 130.07C171.78 134.94 173.33 140.39 173.54 145.91C173.68 149.34 173.3 152.79 172.4 156.16L154.85 221.65C153.87 225.31 156.02 229.08 159.67 230.1H159.68C161.46 230.6 163.37 230.36 164.98 229.44C166.59 228.53 167.76 227 168.24 225.21L178.88 185.5C187.79 192.13 199.72 194.4 211.02 190.53C219.97 187.46 226.87 181.11 230.82 173.29C231.21 172.51 231.91 171.94 232.74 171.7C233.57 171.47 234.47 171.6 235.2 172.07C243.79 177.42 254.62 179 264.94 175.46C271.14 173.34 276.36 169.64 280.29 164.96L285.11 177.7C294.47 202.49 284.12 230.38 260.86 243.06L201.71 275.31C178.58 287.92 149.7 281.65 133.88 260.6ZM201.81 98.9099L219.58 150.77C223.33 161.73 217.49 173.66 206.52 177.42C199.34 179.88 191.73 178.22 186.29 173.7C184.21 171.97 183.32 169.2 184.02 166.59C184.77 163.55 185.79 159.74 185.79 159.74C189.1 147.39 187.36 134.22 180.96 123.14L180.94 123.1C176.67 115.71 170.54 109.65 163.27 105.46C162.02 104.76 161.42 103.3 161.81 101.93C163.35 96.5499 167.41 91.9798 173.11 90.0198L179.31 87.8999C188.56 84.7299 198.64 89.6599 201.81 98.9099ZM273.89 148.01C272.12 154.49 267.28 160.01 260.45 162.35C249.48 166.11 237.55 160.27 233.79 149.3L220.53 110.61C220.45 110.38 220.38 110.16 220.31 109.93C217.6 100.87 222.52 91.2099 231.54 88.1099L237.74 85.9897C246.99 82.8197 257.06 87.7498 260.24 96.9998L273.5 135.7C274.91 139.83 274.96 144.1 273.89 148.01ZM371.11 178.8L409.04 262H382.37L378.33 250.99H352.39L348.35 262H321.68L359.61 178.8H371.11ZM365.36 215.75L359.12 232.64H371.6L365.36 215.75ZM461.81 241.81V262H411.28V241.81H425.11V200.21H411.28V180.03H461.81V200.21H447.99V241.81H461.81ZM236.69 339.45V359.64H207.57V387.29H184.69V305.31H242.81V325.5H207.57V339.45H236.69ZM288.73 305.31C292.89 305.31 296.95 305.88 300.9 307.03C304.86 308.17 308.43 309.92 311.61 312.29C314.79 314.65 317.34 317.63 319.26 321.22C321.17 324.81 322.13 329.01 322.13 333.82C322.13 339.94 320.4 345 316.93 348.99C313.46 352.99 309.04 355.72 303.66 357.19L326.29 387.29H298.4L276.49 354.74V387.29H253.61V305.31H288.73ZM276.49 326.73V342.02C277.88 342.51 279.37 342.92 280.96 343.24C282.55 343.57 284.24 343.73 286.04 343.73C289.63 343.73 292.62 343.02 295.03 341.59C297.44 340.16 298.64 337.98 298.64 335.05C298.64 331.7 297.44 329.48 295.03 328.38C292.62 327.28 289.63 326.73 286.04 326.73H276.49ZM385.79 337.25V354.38H353.25V367.71H390.08V387.29H330.37V305.31H390.08V324.28H353.25V337.25H385.79ZM457.53 337.25V354.38H424.98V367.71H461.81V387.29H402.1V305.31H461.81V324.28H424.98V337.25H457.53Z" fill="#d60270"/>
</svg>

<?xml version="1.0" encoding="UTF-8"?>
<svg width="571" height="562" fill="none" viewBox="0 0 571 562" xmlns="http://www.w3.org/2000/svg">
 <path d="m249.12 32.7c-2.84-2.02-4.43-5.3701-4.18-8.8401 0.25-3.48 2.29-6.5699 5.38-8.1599 18.28-9.57 38.89-14.78 60.23-14.78 46.64 0 89.75 24.88 113.07 65.28l4.59 7.9499c0.55 0.96 1.58 1.5501 2.69 1.5501h9.17c46.65 0 89.75 24.89 113.08 65.28 23.32 40.4 23.32 90.17 0 130.57l-4.59 7.95c-0.56 0.96-0.56 2.14 0 3.1l4.59 7.94c23.32 40.4 23.32 90.17 0 130.57-23.33 40.4-66.43 65.28-113.08 65.28h-9.17c-1.11 0-2.14 0.59-2.69 1.55l-4.59 7.95c-23.32 40.4-66.43 65.28-113.07 65.28-46.65 0-89.75-24.88-113.07-65.28l-4.59-7.95c-0.56-0.96-1.58-1.55-2.69-1.55h-9.18c-46.64 0-89.75-24.88-113.07-65.28-18.18-31.5-22.19-68.7-12.02-102.71 0.95-3.1 3.37-5.53 6.47-6.49 3.09-0.96 6.47-0.32 9 1.71 0.71 0.53 1.4 1.08 2.11 1.62 2.14 1.62 3.0201 4.41 2.1801 6.96-9.36 29.32-6.1601 61.64 9.5799 88.91 19.75 34.21 56.25 55.28 95.75 55.28h9.18c8.25 0 15.88 4.41 20.01 11.55l4.58 7.95c19.76 34.21 56.26 55.28 95.76 55.28s76-21.07 95.75-55.28l4.59-7.95c4.13-7.14 11.75-11.55 20.01-11.55h9.17c39.5 0 76.01-21.07 95.76-55.28s19.75-76.36 0-110.57l-4.59-7.94c-4.13-7.15-4.13-15.96 0-23.1l4.59-7.95c19.75-34.21 19.75-76.36 0-110.57s-56.26-55.28-95.76-55.28h-9.17c-8.26 0-15.88-4.4001-20.01-11.55l-4.59-7.9499c-19.75-34.21-56.25-55.28-95.75-55.28-18.81 0-36.95 4.78-52.91 13.48-2.2 1.22-4.9 1.02-6.89-0.51-0.53-0.42-1.08-0.8099-1.63-1.1899zm-115.24 227.9-128.45-170.86c-4.07-5.42-5.82-12.23-4.87-18.94 0.95-6.71 4.5299-12.77 9.9399-16.84h0.01c5.41-4.07 12.23-5.8302 18.94-4.8802s12.76 4.53 16.84 9.95l52.11 69.33c0.54 0.71 1.5001 0.94 2.3 0.55 0.8-0.39 1.2-1.3 0.97-2.15l-24.67-89.84c-1.82-6.62-0.9299-13.68 2.4601-19.65 3.4-5.96 9.03-10.34 15.64-12.15 6.6199-1.82 13.69-0.93004 19.66 2.46 5.96 3.39 10.33 9.0202 12.15 15.64l20.2 73.56c0.2 0.72 0.05 1.4901-0.41 2.0801-0.45 0.59-1.15 0.9299-1.9 0.9299-11.39 0.04-21.79 7.6702-24.88 19.2l-16.16 60.31c-0.9 3.38 0.93 6.89 4.22 8.08 1.87 0.67 3.93 0.53 5.69-0.39s3.06-2.53 3.57-4.45l16.07-59.97c1.72-6.43 8.34-10.25 14.77-8.52l0.05 0.01c1.41 0.38 2.78 0.84 4.1 1.39 5.98 2.45 11.15 6.54 14.92 11.8 0.09 0.13 0.18 0.25 0.27 0.38 0.54 0.79 1.06 1.6 1.54 2.44 2.82 4.87 4.37 10.32 4.58 15.84 0.14 3.43-0.24 6.88-1.14 10.25l-17.55 65.49c-0.98 3.66 1.17 7.43 4.82 8.45h0.01c1.78 0.5 3.69 0.26 5.3-0.66 1.61-0.91 2.78-2.44 3.26-4.23l10.64-39.71c8.91 6.63 20.84 8.9 32.14 5.03 8.95-3.07 15.85-9.42 19.8-17.24 0.39-0.78 1.09-1.35 1.92-1.59 0.83-0.23 1.73-0.1 2.46 0.37 8.59 5.35 19.42 6.93 29.74 3.39 6.2-2.12 11.42-5.82 15.35-10.5l4.82 12.74c9.36 24.79-0.99 52.68-24.25 65.36l-59.15 32.25c-23.13 12.61-52.01 6.34-67.83-14.71zm67.93-161.69 17.77 51.86c3.75 10.96-2.09 22.89-13.06 26.65-7.18 2.46-14.79 0.8-20.23-3.72-2.08-1.73-2.97-4.5-2.27-7.11 0.75-3.04 1.77-6.85 1.77-6.85 3.31-12.35 1.57-25.52-4.83-36.6l-0.02-0.04c-4.27-7.39-10.4-13.45-17.67-17.64-1.25-0.7-1.85-2.16-1.46-3.53 1.54-5.3801 5.6-9.9502 11.3-11.91l6.2-2.1199c9.25-3.17 19.33 1.76 22.5 11.01zm72.08 49.1c-1.77 6.48-6.61 12-13.44 14.34-10.97 3.76-22.9-2.08-26.66-13.05l-13.26-38.69c-0.08-0.23-0.15-0.45-0.22-0.68-2.71-9.06 2.21-18.72 11.23-21.82l6.2-2.1202c9.25-3.17 19.32 1.7601 22.5 11.01l13.26 38.7c1.41 4.13 1.46 8.4 0.39 12.31zm97.22 30.79 37.93 83.2h-26.67l-4.04-11.01h-25.94l-4.04 11.01h-26.67l37.93-83.2h11.5zm-5.75 36.95-6.24 16.89h12.48l-6.24-16.89zm96.45 26.06v20.19h-50.53v-20.19h13.83v-41.6h-13.83v-20.18h50.53v20.18h-13.82v41.6h13.82zm-225.12 97.64v20.19h-29.12v27.65h-22.88v-81.98h58.12v20.19h-35.24v13.95h29.12zm52.04-34.14c4.16 0 8.22 0.57 12.17 1.72 3.96 1.14 7.53 2.89 10.71 5.26 3.18 2.36 5.73 5.34 7.65 8.93 1.91 3.59 2.87 7.79 2.87 12.6 0 6.12-1.73 11.18-5.2 15.17-3.47 4-7.89 6.73-13.27 8.2l22.63 30.1h-27.89l-21.91-32.55v32.55h-22.88v-81.98h35.12zm-12.24 21.42v15.29c1.39 0.49 2.88 0.9 4.47 1.22 1.59 0.33 3.28 0.49 5.08 0.49 3.59 0 6.58-0.71 8.99-2.14s3.61-3.61 3.61-6.54c0-3.35-1.2-5.57-3.61-6.67s-5.4-1.65-8.99-1.65h-9.55zm109.3 10.52v17.13h-32.54v13.33h36.83v19.58h-59.71v-81.98h59.71v18.97h-36.83v12.97h32.54zm71.74 0v17.13h-32.55v13.33h36.83v19.58h-59.71v-81.98h59.71v18.97h-36.83v12.97h32.55z" clip-rule="evenodd" fill="#d60270" fill-rule="evenodd"/>
</svg>
